lib/flags/li-liechtenstein.svg

<svg xmlns="http://www.w3.org/2000/svg" fill="none" aria-hidden="true" viewBox="0 0 42 30"><g id="Country=LI - Liechtenstein, Size=sm (36x24)" filter="url(#filter0_dd_91_26744)"><g clip-path="url(#clip0_91_26744)"><g id="flag"><mask id="mask0_91_26744" width="36" height="24" x="3" y="2" maskUnits="userSpaceOnUse" style="mask-type:alpha"><rect id="mask" width="36" height="24" x="3" y="2" fill="white"/></mask><g mask="url(#mask0_91_26744)"><g id="contents"><path id="background" fill="#E31D1C" fill-rule="evenodd" d="M3 2V26H39V2H3Z" clip-rule="evenodd"/><mask id="mask1_91_26744" width="36" height="24" x="3" y="2" maskUnits="userSpaceOnUse" style="mask-type:alpha"><path id="background_2" fill="white" fill-rule="evenodd" d="M3 2V26H39V2H3Z" clip-rule="evenodd"/></mask><g mask="url(#mask1_91_26744)"><path id="top" fill="#2E42A5" fill-rule="evenodd" d="M3 2V14H39V2H3Z" clip-rule="evenodd"/><g id="mark"><path id="Path 131" fill="black" fill-rule="evenodd" d="M8.39795 13.053C8.39795 13.053 9.75545 13.8041 12.9011 13.8041C16.0468 13.8041 17.7166 13.053 17.7166 13.053C17.7166 13.053 15.2496 11.7783 13.0438 11.7783C10.8381 11.7783 8.39795 13.053 8.39795 13.053Z" clip-rule="evenodd"/><path id="Path 130" fill="#FFD83D" stroke="black" stroke-width="0.5" d="M8.47916 8.74228L8.26999 8.87921L8.34401 8.99228H8.47916H17.8451H18.0215L18.0806 8.82603L17.8451 8.74228C18.0806 8.82603 18.0806 8.82594 18.0807 8.82585L18.0808 8.82562L18.081 8.82503L18.0816 8.82329L18.0835 8.81759L18.0903 8.79762C18.0959 8.7806 18.1037 8.75625 18.1131 8.72534C18.1318 8.66357 18.1567 8.57537 18.1825 8.46695C18.2339 8.25085 18.2896 7.95066 18.3052 7.61726C18.3357 6.96102 18.2117 6.11126 17.5068 5.56652C16.8022 5.02209 15.9117 5.1045 15.1264 5.27896C14.8591 5.33835 14.5877 5.41265 14.3318 5.48269C14.2103 5.51597 14.0922 5.54829 13.9798 5.57759C13.6186 5.67172 13.3102 5.73632 13.0584 5.73632C12.8075 5.73632 12.5345 5.67646 12.2216 5.58891C12.1252 5.56194 12.0237 5.5319 11.9186 5.50077C11.6948 5.43452 11.4545 5.36338 11.212 5.30666C10.4796 5.13533 9.64104 5.07131 8.70795 5.54104C8.22377 5.78479 7.94018 6.12737 7.80444 6.51243C7.67144 6.88972 7.68839 7.28448 7.75876 7.62864C7.82937 7.974 7.95724 8.28549 8.06529 8.5081C8.11966 8.62013 8.16986 8.71138 8.20684 8.77522C8.22535 8.80717 8.2406 8.83235 8.25149 8.84994L8.26442 8.87055L8.26818 8.87641L8.26933 8.8782L8.26973 8.8788L8.26988 8.87903C8.26994 8.87912 8.26999 8.87921 8.47916 8.74228Z"/><path id="Path 129" fill="#FFD83D" stroke="black" stroke-width="0.5" d="M7.50293 9.12717L7.39688 8.90077L7.18143 9.0017L7.27157 9.22188L8.56865 12.3902L8.65177 12.5933L8.86385 12.5372L8.86387 12.5372L8.86389 12.5372L8.86404 12.5372L8.86498 12.5369L8.86916 12.5359L8.8866 12.5314C8.90219 12.5274 8.92563 12.5215 8.9564 12.5139C9.01795 12.4987 9.10879 12.4769 9.22478 12.4507C9.45682 12.3982 9.78917 12.328 10.1887 12.2579C10.9893 12.1173 12.0532 11.9778 13.1183 11.9778C14.1831 11.9778 15.2272 12.1173 16.0075 12.2577C16.397 12.3278 16.7193 12.3979 16.9438 12.4503C17.056 12.4765 17.1437 12.4982 17.203 12.5134C17.2326 12.5209 17.2552 12.5268 17.2702 12.5308L17.2869 12.5353L17.2908 12.5364L17.2917 12.5366L17.2918 12.5366L17.2919 12.5366L17.2919 12.5366L17.5034 12.5946L17.5884 12.3925L18.9214 9.22412L19.0146 9.00268L18.797 8.90077L18.691 9.12717C18.797 8.90077 18.7969 8.90073 18.7968 8.90068L18.7966 8.90057L18.796 8.90029L18.7943 8.8995L18.7889 8.89701L18.7699 8.88856C18.7536 8.88142 18.7301 8.87136 18.6994 8.85881C18.6379 8.83369 18.5475 8.79858 18.428 8.75683C18.1889 8.67334 17.8333 8.56335 17.36 8.45381C16.4131 8.2347 14.9957 8.01758 13.097 8.01758C11.1982 8.01758 9.78079 8.2347 8.83394 8.45381C8.36059 8.56335 8.00505 8.67334 7.76596 8.75683C7.64642 8.79858 7.55601 8.83369 7.49455 8.85881C7.46382 8.87136 7.44033 8.88142 7.42406 8.88856L7.40506 8.89701L7.39962 8.8995L7.39791 8.90029L7.39731 8.90057L7.39707 8.90068C7.39697 8.90073 7.39688 8.90077 7.50293 9.12717Z"/><path id="Oval 28" fill="#FFD83D" stroke="black" stroke-width="0.5" d="M12.9829 6.26527C13.5641 6.26527 13.9892 5.74802 13.9892 5.16999C13.9892 4.59196 13.5641 4.07471 12.9829 4.07471C12.4017 4.07471 11.9766 4.59196 11.9766 5.16999C11.9766 5.74802 12.4017 6.26527 12.9829 6.26527Z"/><g id="Combined Shape"><mask id="path-10-outside-1_91_26744" width="4" height="5" x="11.1323" y="1" fill="black" maskUnits="userSpaceOnUse"><rect width="4" height="5" x="11.1323" y="1" fill="white"/><path fill-rule="evenodd" d="M13.2668 2H12.6995L12.7726 2.92272L12.1323 2.84528V3.47925L12.7824 3.39965L12.6995 4.85283H13.2668L13.1828 3.39721L13.834 3.47925V2.84528L13.1946 2.92687L13.2668 2Z" clip-rule="evenodd"/></mask><path fill="#FFD83D" fill-rule="evenodd" d="M13.2668 2H12.6995L12.7726 2.92272L12.1323 2.84528V3.47925L12.7824 3.39965L12.6995 4.85283H13.2668L13.1828 3.39721L13.834 3.47925V2.84528L13.1946 2.92687L13.2668 2Z" clip-rule="evenodd"/><path fill="black" d="M12.6995 2V1.5H12.1584L12.2011 2.03944L12.6995 2ZM13.2668 2L13.7653 2.03882L13.8072 1.5H13.2668V2ZM12.7726 2.92272L12.7125 3.4191L13.3192 3.49248L13.271 2.88328L12.7726 2.92272ZM12.1323 2.84528L12.1924 2.3489L11.6323 2.28116V2.84528H12.1323ZM12.1323 3.47925H11.6323V4.0442L12.1931 3.97554L12.1323 3.47925ZM12.7824 3.39965L13.2816 3.42811L13.3156 2.83063L12.7216 2.90336L12.7824 3.39965ZM12.6995 4.85283L12.2003 4.82437L12.1702 5.35283H12.6995V4.85283ZM13.2668 4.85283V5.35283H13.7964L13.7659 4.82403L13.2668 4.85283ZM13.1828 3.39721L13.2453 2.90113L12.649 2.82601L12.6836 3.426L13.1828 3.39721ZM13.834 3.47925L13.7715 3.97532L14.334 4.04619V3.47925H13.834ZM13.834 2.84528H14.334V2.27743L13.7707 2.3493L13.834 2.84528ZM13.1946 2.92687L12.6961 2.88805L12.6484 3.50061L13.2579 3.42285L13.1946 2.92687ZM12.6995 2.5H13.2668V1.5H12.6995V2.5ZM13.271 2.88328L13.198 1.96056L12.2011 2.03944L12.2741 2.96216L13.271 2.88328ZM12.0723 3.34167L12.7125 3.4191L12.8326 2.42634L12.1924 2.3489L12.0723 3.34167ZM12.6323 3.47925V2.84528H11.6323V3.47925H12.6323ZM12.7216 2.90336L12.0716 2.98295L12.1931 3.97554L12.8432 3.89595L12.7216 2.90336ZM13.1987 4.88129L13.2816 3.42811L12.2832 3.37119L12.2003 4.82437L13.1987 4.88129ZM13.2668 4.35283H12.6995V5.35283H13.2668V4.35283ZM12.6836 3.426L12.7676 4.88163L13.7659 4.82403L13.682 3.36841L12.6836 3.426ZM13.8965 2.98317L13.2453 2.90113L13.1203 3.89328L13.7715 3.97532L13.8965 2.98317ZM13.334 2.84528V3.47925H14.334V2.84528H13.334ZM13.2579 3.42285L13.8973 3.34126L13.7707 2.3493L13.1313 2.43089L13.2579 3.42285ZM12.7683 1.96118L12.6961 2.88805L13.6931 2.96568L13.7653 2.03882L12.7683 1.96118Z" mask="url(#path-10-outside-1_91_26744)"/></g></g></g></g></g></g></g></g><defs><filter id="filter0_dd_91_26744" width="42" height="30" x="0" y="0" color-interpolation-filters="sRGB" filterUnits="userSpaceOnUse"><feFlood flood-opacity="0" result="BackgroundImageFix"/><feColorMatrix in="SourceAlpha" result="hardAlpha" values="0 0 0 0 0 0 0 0 0 0 0 0 0 0 0 0 0 0 127 0"/><feOffset dy="1"/><feGaussianBlur stdDeviation="1"/><feColorMatrix values="0 0 0 0 0.0627451 0 0 0 0 0.0941176 0 0 0 0 0.156863 0 0 0 0.06 0"/><feBlend in2="BackgroundImageFix" result="effect1_dropShadow_91_26744"/><feColorMatrix in="SourceAlpha" result="hardAlpha" values="0 0 0 0 0 0 0 0 0 0 0 0 0 0 0 0 0 0 127 0"/><feOffset dy="1"/><feGaussianBlur stdDeviation="1.5"/><feColorMatrix values="0 0 0 0 0.0627451 0 0 0 0 0.0941176 0 0 0 0 0.156863 0 0 0 0.1 0"/><feBlend in2="effect1_dropShadow_91_26744" result="effect2_dropShadow_91_26744"/><feBlend in="SourceGraphic" in2="effect2_dropShadow_91_26744" result="shape"/></filter><clipPath id="clip0_91_26744"><rect width="36" height="24" x="3" y="2" fill="white" rx="2"/></clipPath></defs></svg>

<svg xmlns="http://www.w3.org/2000/svg" fill="none" aria-hidden="true" viewBox="0 0 42 30"><g filter="url(#a)"><g clip-path="url(#b)"><mask id="c" width="36" height="24" x="3" y="2" maskUnits="userSpaceOnUse" style="mask-type:alpha"><path fill="#fff" d="M3 2h36v24H3z"/></mask><g mask="url(#c)"><path fill="#E31D1C" fill-rule="evenodd" d="M3 2v24h36V2H3Z" clip-rule="evenodd"/><mask id="d" width="36" height="24" x="3" y="2" maskUnits="userSpaceOnUse" style="mask-type:alpha"><path fill="#fff" fill-rule="evenodd" d="M3 2v24h36V2H3Z" clip-rule="evenodd"/></mask><g mask="url(#d)"><path fill="#2E42A5" fill-rule="evenodd" d="M3 2v12h36V2H3Z" clip-rule="evenodd"/><path fill="#000" fill-rule="evenodd" d="M8.398 13.053s1.357.751 4.503.751 4.816-.751 4.816-.751-2.467-1.275-4.673-1.275-4.646 1.275-4.646 1.275Z" clip-rule="evenodd"/><path fill="#FFD83D" stroke="#000" stroke-width=".5" d="m8.48 8.742-.21.137.074.113h9.678l.059-.166-.236-.084.236.084v-.003l.003-.005.006-.02a3.383 3.383 0 0 0 .093-.331c.05-.216.107-.516.122-.85.03-.656-.093-1.506-.798-2.05-.705-.545-1.595-.463-2.38-.288-.268.06-.54.134-.795.204l-.352.095c-.361.094-.67.158-.922.158-.25 0-.524-.06-.836-.147a21.207 21.207 0 0 1-.303-.088c-.224-.066-.465-.138-.707-.194-.732-.172-1.571-.236-2.504.234-.484.244-.768.586-.904.971-.133.378-.116.772-.045 1.117.07.345.198.656.306.88a4.166 4.166 0 0 0 .186.34l.013.022.004.005.001.002v.001l.21-.137Z"/><path fill="#FFD83D" stroke="#000" stroke-width=".5" d="m7.503 9.127-.106-.226-.216.1.09.22 1.298 3.17.083.202.212-.056h.001l.004-.001.018-.005a8.415 8.415 0 0 1 .338-.08c.232-.053.564-.123.964-.193.8-.14 1.864-.28 2.93-.28 1.064 0 2.108.14 2.889.28a18.828 18.828 0 0 1 1.262.273l.017.004.004.001.212.059.085-.203 1.333-3.168.094-.221-.218-.102-.106.226.106-.226h-.001l-.002-.002-.005-.002-.02-.008a5.657 5.657 0 0 0-.342-.132 9.97 9.97 0 0 0-1.067-.303c-.947-.22-2.364-.436-4.263-.436s-3.316.217-4.263.436c-.473.11-.829.22-1.068.303a5.625 5.625 0 0 0-.342.132l-.019.008-.005.002-.002.001.105.227Zm5.48-2.862c.581 0 1.006-.517 1.006-1.095s-.425-1.095-1.006-1.095-1.006.517-1.006 1.095.425 1.095 1.006 1.095Z"/><mask id="e" width="4" height="5" x="11.132" y="1" fill="#000" maskUnits="userSpaceOnUse"><path fill="#fff" d="M11.132 1h4v5h-4z"/><path fill-rule="evenodd" d="M13.267 2H12.7l.073.923-.64-.078v.634l.65-.08-.083 1.454h.567l-.084-1.456.651.082v-.634l-.64.082.073-.927Z" clip-rule="evenodd"/></mask><path fill="#FFD83D" fill-rule="evenodd" d="M13.267 2H12.7l.073.923-.64-.078v.634l.65-.08-.083 1.454h.567l-.084-1.456.651.082v-.634l-.64.082.073-.927Z" clip-rule="evenodd"/><path fill="#000" d="M12.7 2v-.5h-.542l.043.54L12.7 2Zm.567 0 .498.039.042-.539h-.54V2Zm-.494.923-.06.496.606.073-.048-.609-.498.04Zm-.64-.078.06-.496-.56-.068v.564h.5Zm0 .634h-.5v.565l.56-.068-.06-.497Zm.65-.08.499.03.034-.598-.594.072.06.497ZM12.7 4.854l-.5-.029-.03.529h.53v-.5Zm.567 0v.5h.53l-.031-.529-.5.029Zm-.084-1.456.062-.496-.596-.075.035.6.499-.029Zm.651.082-.063.496.563.071V3.48h-.5Zm0-.634h.5v-.568l-.563.072.063.496Zm-.64.082-.498-.039-.048.613.61-.078-.063-.496ZM12.7 2.5h.568v-1H12.7v1Zm.572.383-.073-.922-.997.078.073.923.997-.079Zm-1.199.459.64.077.12-.993-.64-.077-.12.993Zm.56.137v-.634h-1v.634h1Zm.09-.576-.65.08.121.993.65-.08-.121-.993Zm.477 1.978.083-1.453-.999-.057-.083 1.453.999.057Zm.068-.528H12.7v1h.567v-1Zm-.583-.927.084 1.456.998-.058-.084-1.456-.998.058Zm1.213-.443-.652-.082-.125.992.652.082.124-.992Zm-.563-.138v.634h1v-.634h-1Zm-.076.578.64-.082-.127-.992-.64.082.127.992Zm-.49-1.462-.072.927.997.078.072-.927-.997-.078Z" mask="url(#e)"/></g></g></g></g><defs><clipPath id="b"><rect width="36" height="24" x="3" y="2" fill="#fff" rx="2"/></clipPath><filter id="a" width="42" height="30" x="0" y="0" color-interpolation-filters="sRGB" filterUnits="userSpaceOnUse"><feFlood flood-opacity="0" result="BackgroundImageFix"/><feColorMatrix in="SourceAlpha" result="hardAlpha" values="0 0 0 0 0 0 0 0 0 0 0 0 0 0 0 0 0 0 127 0"/><feOffset dy="1"/><feGaussianBlur stdDeviation="1"/><feColorMatrix values="0 0 0 0 0.0627451 0 0 0 0 0.0941176 0 0 0 0 0.156863 0 0 0 0.06 0"/><feBlend in2="BackgroundImageFix" result="effect1_dropShadow_91_26744"/><feColorMatrix in="SourceAlpha" result="hardAlpha" values="0 0 0 0 0 0 0 0 0 0 0 0 0 0 0 0 0 0 127 0"/><feOffset dy="1"/><feGaussianBlur stdDeviation="1.5"/><feColorMatrix values="0 0 0 0 0.0627451 0 0 0 0 0.0941176 0 0 0 0 0.156863 0 0 0 0.1 0"/><feBlend in2="effect1_dropShadow_91_26744" result="effect2_dropShadow_91_26744"/><feBlend in="SourceGraphic" in2="effect2_dropShadow_91_26744" result="shape"/></filter></defs></svg>
